X:1
T:Weel May the Keel Row
M:2/4
L:1/8
K:F
 z2 z z/2 B/2| A2 F3/2 A/2| B2 G3/2 B/2| A2 F3/2 A/2| G3/2- E/2 C3/2 B/2|\
 A2 F3/2 A/2| B2 G3/2 B/2| A3/2 F/2 G3/2 E/2| F2 z3/2 c/2| A/2- c3/2 c3/2 f/2|\
 d2 c3/2 B/2| A2 F3/2 A/2|G-E C3/2 c/2| A/2- c3/2 c3/2 f/2| d2 c3/2 B/2|\
 A/2- F3/2 G/2 E3/2| F2 z2|
